packages/calcite-ui-icons/icons/tangent-curve-16.svg

<?xml version="1.0" encoding="UTF-8"?><svg id="icons" xmlns="http://www.w3.org/2000/svg" viewBox="0 0 16 16"><defs><style>.cls-1{fill:none;}</style></defs><path d="M11,1v1c-3.72559,0-7.1019,2.552-7.991,6h-1.009v3h1v4h1v-4h1v-3h-.96063c.8631-2.88605,3.79779-5.027,6.96063-5.027v1.027h3V1h-3ZM4,10h-1v-1h1v1ZM13,3h-1v-1h1v1Z"/><rect class="cls-1" y="0" width="16" height="16"/></svg>

<svg xmlns="http://www.w3.org/2000/svg" viewBox="0 0 16 16"><path d="M11 1v1C7.274 2 3.898 4.552 3.009 8H2v3h1v4h1v-4h1V8h-.96C4.901 5.114 7.836 2.973 11 2.973V4h3V1h-3zm-7 9H3V9h1v1zm9-7h-1V2h1v1z"/><path fill="none" d="M0 0h16v16H0z"/></svg>
